ix/direct-right_outline.svg

<svg viewBox="0 0 24 24" fill="none" xmlns="http://www.w3.org/2000/svg" height="1em" width="1em">
  <path d="M6.19078 22.0598C5.19078 22.0598 4.22078 21.6698 3.45078 20.9198C2.20078 19.6998 1.90078 17.8998 2.68078 16.3398L4.30078 13.0998C4.64078 12.4198 4.64078 11.5998 4.30078 10.9098L2.68078 7.65985C1.90078 6.09985 2.20078 4.29985 3.45078 3.07985C4.70078 1.85985 6.50078 1.58985 8.05078 2.40985L19.6408 8.50985C20.9408 9.18985 21.7508 10.5298 21.7508 11.9998C21.7508 13.4698 20.9408 14.8098 19.6408 15.4898L8.05078 21.5898C7.45078 21.9098 6.82078 22.0598 6.19078 22.0598ZM6.20078 3.43985C5.51078 3.43985 4.91078 3.75985 4.50078 4.15985C3.88078 4.75985 3.44078 5.82985 4.02078 6.99985L5.64078 10.2398C6.19078 11.3498 6.19078 12.6598 5.64078 13.7698L4.02078 17.0098C3.43078 18.1798 3.88078 19.2498 4.50078 19.8498C5.12078 20.4498 6.19078 20.8798 7.35078 20.2698L18.9408 14.1698C19.7608 13.7398 20.2508 12.9298 20.2508 12.0098C20.2508 11.0898 19.7608 10.2798 18.9408 9.84985L7.35078 3.72985C6.95078 3.51985 6.56078 3.43985 6.20078 3.43985Z" fill="#292D32"/>
</svg>

<svg viewBox="0 0 24 24" fill="none" xmlns="http://www.w3.org/2000/svg" height="1em" width="1em">
  <path d="M6.19 22.06c-1 0-1.97-.39-2.74-1.14-1.25-1.22-1.55-3.02-.77-4.58L4.3 13.1c.34-.68.34-1.5 0-2.19L2.68 7.66C1.9 6.1 2.2 4.3 3.45 3.08c1.25-1.22 3.05-1.49 4.6-.67l11.59 6.1A3.93 3.93 0 0 1 21.75 12c0 1.47-.81 2.81-2.11 3.49l-11.59 6.1c-.6.32-1.23.47-1.86.47ZM6.2 3.44c-.69 0-1.29.32-1.7.72-.62.6-1.06 1.67-.48 2.84l1.62 3.24c.55 1.11.55 2.42 0 3.53l-1.62 3.24c-.59 1.17-.14 2.24.48 2.84.62.6 1.69 1.03 2.85.42l11.59-6.1c.82-.43 1.31-1.24 1.31-2.16 0-.92-.49-1.73-1.31-2.16L7.35 3.73c-.4-.21-.79-.29-1.15-.29Z" fill="#292D32"/>
</svg>
